wp-content/uploads/2020/02/icon-branding.svg

<svg viewBox="0 0 20 20" xmlns="http://www.w3.org/2000/svg"><g fill="#010101"><path d="m2.67 7.33a2.67 2.67 0 1 0 2.66 2.67 2.67 2.67 0 0 0 -2.66-2.67zm0 4.67a2 2 0 1 1 2-2 2 2 0 0 1 -2 2z"/><path d="m17.33 7.33a2.67 2.67 0 1 0 2.67 2.67 2.67 2.67 0 0 0 -2.67-2.67zm0 4.67a2 2 0 1 1 2-2 2 2 0 0 1 -2 2z"/><path d="m10 7.33a2.67 2.67 0 1 0 2.67 2.67 2.67 2.67 0 0 0 -2.67-2.67zm0 4.67a2 2 0 1 1 2-2 2 2 0 0 1 -2 2z"/></g></svg>

<?xml version="1.0" encoding="utf-8"?><svg xmlns="http://www.w3.org/2000/svg" viewBox="0 0 20 20"><title>icon--branding</title><path d="M2.67,7.33A2.67,2.67,0,1,0,5.33,10,2.67,2.67,0,0,0,2.67,7.33Zm0,4.67a2,2,0,1,1,2-2A2,2,0,0,1,2.67,12Z" fill="#010101"/><path d="M17.33,7.33A2.67,2.67,0,1,0,20,10,2.67,2.67,0,0,0,17.33,7.33Zm0,4.67a2,2,0,1,1,2-2A2,2,0,0,1,17.33,12Z" fill="#010101"/><path d="M10,7.33A2.67,2.67,0,1,0,12.67,10,2.67,2.67,0,0,0,10,7.33ZM10,12a2,2,0,1,1,2-2A2,2,0,0,1,10,12Z" fill="#010101"/></svg>
